img/icon_viber-black.svg

<svg width="45" height="45" viewBox="0 0 45 45" fill="none" xmlns="http://www.w3.org/2000/svg">
<path fill-rule="evenodd" clip-rule="evenodd" d="M22.5 0C34.9264 0 45 10.0736 45 22.5C45 34.9264 34.9264 45 22.5 45C10.0736 45 0 34.9264 0 22.5C0 10.0736 10.0736 0 22.5 0ZM28.4944 19.6483C28.385 18.7593 28.1117 18.0612 27.6265 17.4429C26.9963 16.6467 26.1911 16.1699 24.9989 15.8871C24.2219 15.6986 23.908 15.7202 23.627 15.9769C23.3652 16.2174 23.3141 16.6995 23.5142 17.0117C23.6548 17.2383 23.8171 17.3195 24.2685 17.408C24.8695 17.5186 25.2849 17.6622 25.6627 17.8782C26.4647 18.3413 26.8381 19.0659 26.8781 20.239C26.8968 20.7898 26.9444 20.9592 27.1368 21.1546C27.4934 21.5117 28.128 21.4422 28.3972 21.0149C28.4959 20.8538 28.511 20.7837 28.5214 20.4097C28.5283 20.1781 28.5184 19.8334 28.4944 19.6483ZM28.5052 14.1937C30.4119 15.7356 31.4773 17.927 31.6357 20.6508C31.7023 21.7236 31.6138 22.073 31.2353 22.272C30.8938 22.4564 30.5068 22.3957 30.2413 22.1181C30.0655 21.9375 29.9979 21.6905 30.0005 21.2532C30.0082 20.044 29.7297 18.6937 29.2767 17.7568C28.7525 16.6662 27.9422 15.7382 26.9228 15.0597C26.0299 14.4638 24.8482 14.0613 23.7025 13.961C22.9593 13.896 22.6939 13.7702 22.5513 13.4139C22.4629 13.2008 22.4862 12.8323 22.5899 12.6673C22.6878 12.5151 22.9076 12.3468 23.063 12.3024C23.2277 12.2543 24.1877 12.3383 24.7091 12.4419C26.1324 12.7316 27.431 13.3274 28.5052 14.1937ZM35.1113 31.1402C35.058 30.9845 34.9337 30.7443 34.8449 30.6065C34.2854 29.7615 31.2791 27.4088 29.7781 26.6394C28.9211 26.1992 28.2861 26.0524 27.8154 26.1902C27.3091 26.3326 27.0427 26.5682 26.1945 27.6223C25.8526 28.0448 25.5018 28.4406 25.4085 28.5029C25.1776 28.663 24.7247 28.792 24.405 28.792C23.6634 28.7875 22.3178 28.3072 21.2832 27.6756C20.4794 27.1865 19.4492 26.3104 18.6588 25.4431C17.7262 24.4247 17.0913 23.5263 16.5894 22.5123C15.9411 21.2092 15.7768 20.4131 16.0476 19.8305C16.1143 19.6837 16.2031 19.5281 16.243 19.4791C16.283 19.4347 16.7004 19.0922 17.1622 18.7187C18.0682 17.9982 18.2147 17.8337 18.3834 17.34C18.5966 16.7129 18.5389 16.0725 18.2103 15.4276C17.9571 14.9384 17.2955 13.871 16.8159 13.1817C16.1809 12.2745 14.6 10.3354 14.2847 10.073C13.7163 9.61048 12.9881 9.53038 12.1842 9.84176C11.3362 10.1709 9.74636 11.4517 9.06693 12.3456C8.45412 13.155 8.21884 13.7287 8.18328 14.4848C8.15222 15.1074 8.20548 15.3653 8.5341 16.1614C11.1052 22.4055 14.9419 27.391 20.213 31.3492C22.9662 33.4172 25.8215 34.9916 28.7834 36.0679C30.5108 36.695 31.2613 36.7261 32.145 36.2102C32.518 35.9878 33.4416 35.0405 33.9567 34.3512C34.8094 33.2037 35.1247 32.6745 35.2134 32.252C35.2756 31.963 35.2268 31.4604 35.1113 31.1402ZM33.9762 17.0629C34.5171 18.4719 34.7765 19.7357 34.8334 21.2764C34.8424 21.5808 34.8382 22.1385 34.8185 22.5162C34.7774 23.2403 34.7381 23.3842 34.5297 23.5758C34.1946 23.8902 33.5414 23.8153 33.2937 23.4364C33.1644 23.2331 33.1463 23.0842 33.1712 22.2381C33.2431 19.7355 32.737 17.776 31.5176 15.8166C30.0606 13.4659 27.8812 11.8823 25.0471 11.1076C24.3244 10.9104 23.7153 10.7902 22.7681 10.6627C22.151 10.5819 22.0159 10.5478 21.8636 10.454C21.4035 10.1594 21.3974 9.41325 21.856 9.11411C22.0927 8.95619 22.2672 8.94914 23.0386 9.04793C25.3006 9.3306 27.319 10.0027 28.9776 11.0184C30.1664 11.7474 30.9159 12.4023 31.8809 13.5493C32.9017 14.7725 33.4421 15.677 33.9762 17.0629Z" fill="#424242"/>
</svg>

<svg width="45" height="45" fill="none" xmlns="http://www.w3.org/2000/svg"><path fill-rule="evenodd" clip-rule="evenodd" d="M22.5 0C34.926 0 45 10.074 45 22.5S34.926 45 22.5 45 0 34.926 0 22.5 10.074 0 22.5 0zm5.994 19.648c-.109-.889-.382-1.587-.867-2.205-.63-.796-1.436-1.273-2.628-1.556-.777-.188-1.091-.167-1.372.09-.262.24-.313.723-.113 1.035.14.226.303.308.755.396.6.11 1.016.254 1.394.47.802.463 1.175 1.188 1.215 2.361.019.55.066.72.259.916a.827.827 0 001.26-.14c.099-.161.114-.231.124-.605a5.942 5.942 0 00-.027-.762zm.011-5.454c1.907 1.542 2.972 3.733 3.13 6.457.067 1.073-.021 1.422-.4 1.621a.808.808 0 01-.994-.154c-.175-.18-.243-.427-.24-.865.007-1.209-.271-2.56-.724-3.496a6.753 6.753 0 00-2.354-2.697c-.893-.596-2.075-.999-3.22-1.099-.744-.065-1.01-.19-1.152-.547-.088-.213-.065-.582.039-.747a1.01 1.01 0 01.473-.365c.165-.048 1.125.036 1.646.14 1.423.29 2.722.885 3.796 1.752zm6.606 16.946a2.99 2.99 0 00-.266-.534c-.56-.845-3.566-3.197-5.067-3.967-.857-.44-1.492-.587-1.963-.449-.506.143-.772.378-1.62 1.432-.342.423-.693.819-.787.88-.23.161-.683.29-1.003.29-.742-.005-2.087-.485-3.122-1.116-.804-.49-1.834-1.366-2.624-2.233-.933-1.018-1.568-1.917-2.07-2.93-.648-1.304-.812-2.1-.541-2.683.066-.146.155-.302.195-.35.04-.045.457-.388.92-.761.905-.72 1.052-.885 1.22-1.379.214-.627.156-1.267-.173-1.912-.253-.49-.915-1.557-1.394-2.246-.635-.908-2.216-2.847-2.531-3.109-.569-.463-1.297-.543-2.1-.231-.849.329-2.439 1.61-3.118 2.504-.613.809-.848 1.383-.884 2.139-.03.622.022.88.351 1.676 2.571 6.244 6.408 11.23 11.679 15.188 2.753 2.068 5.608 3.643 8.57 4.719 1.728.627 2.478.658 3.362.142.373-.222 1.297-1.17 1.812-1.859.852-1.147 1.168-1.676 1.256-2.099.063-.289.014-.792-.102-1.112zm-1.135-14.077c.541 1.409.8 2.673.857 4.213.01.305.005.863-.014 1.24-.042.724-.08.868-.29 1.06-.334.314-.988.24-1.235-.14-.13-.203-.148-.352-.123-1.198.072-2.503-.434-4.462-1.653-6.421-1.457-2.351-3.637-3.935-6.47-4.71-.724-.197-1.333-.317-2.28-.444-.617-.081-.752-.115-.904-.209-.46-.295-.467-1.04-.008-1.34.237-.158.411-.165 1.183-.066 2.262.283 4.28.955 5.939 1.97 1.188.73 1.938 1.384 2.903 2.531 1.02 1.224 1.561 2.128 2.095 3.514z" fill="#424242"/></svg>
